X: 1
T: O Steer Her Up, An Haud Her Gaun
M: 2/4
L: 1/8
R: polka
K: Amix
E/ |: AA c>B | Ac E>D | CE ED/C/ | B,G G2|
AA c>B | Ac EE | FD B,^G, | A,2 A,2 |
AE CE | AE C2 | B,>G GB, | D2 G,2 |
A>E CB, | A,E/E/- Ed | cB/A/ BA/^G/ | A2 E2 :|
